X:7
T:Gigue des Sucres
C:Joseph Allard
M:6/8
L:1/8
Z:abc by Bruce Osborne - bosborne@kos.net
K:G
G|D2 G D2 G|DGA B3|cBc ABc|e2 d B2 G|!
D2 G D2 G|DGA B3|cBc DEF|GBA G2:|!
|:d|g3 f3|ece d3|cBc ABc|e2 d B2 d|!
g3 f3|ece d3|cBc DEF|GBA G2:|!
